X:13
T:The Morning Dew
R:reel
O:Ireland
D:An Historic Recording of Irish Music
H:first recorded by Michale Coleman
Z:Paul Stewart Cranford (P.S.C.), <http://www.cranfordpub.com>                        
L:1/8
Q:333
M:C|
K:Edor
~E3 B {d}BAFA|EBEB AGFG|~E3 B {d}BAFA|1B2 dB AGFG:|2BcdB ADFA||
||~B2 eB fBeB|~B2 dB ADFA|~B2 eB gBec|dcdB ADFA|
~B2 eB FBeB|FBdB ADFA|(3(Bcd) eg fdec|dcdB ADFA||
||BAGF EFGA|BEGB ADFA|BAGF EFGA|BcdB ADFD|
BAGF EFGA|BEGB ADFA|~B2 EB GBEB|{d}BAdB AGFG|]
